X:17
T:John David's cat
R:jig
B:Richard Robinson tunebooks #8
O:Wales
P:AABBAA
M:6/8
K:D
f |:a2f d2f | edB A2b | a2g fge |1 d3 z2f :|2 d3 z2e||
|:f2f f2d | gab a2g | fga agf | e3 fga :||
